images/header/log-in.svg

<svg width="17" height="16" viewBox="0 0 17 16" fill="none" xmlns="http://www.w3.org/2000/svg">
<path fill-rule="evenodd" clip-rule="evenodd" d="M9.26963 2H14.2611V14H9.26963V16H15.2611H16.2611V15V1V0H15.2611H9.26963V2ZM4.56773 3.7066L7.80624 6.94975H0.282471V8.94975H7.80624L4.56773 12.1929L5.98295 13.6061L10.9256 8.65635L11.6312 7.94975L10.9256 7.24315L5.98295 2.2934L4.56773 3.7066Z" fill="white"/>
</svg>

<svg width="17" height="16" fill="none" xmlns="http://www.w3.org/2000/svg"><path fill-rule="evenodd" clip-rule="evenodd" d="M9.2696 2h4.9915v12H9.2696v2h6.9915V0H9.2696v2ZM4.5677 3.7066l3.2385 3.2431H.2825v2h7.5237L4.5677 12.193l1.4152 1.4132 4.9427-4.9497.7056-.7066-.7056-.7066L5.983 2.2934 4.5676 3.7066Z" fill="#fff"/></svg>
